!!!!SEGMENT: pl-kk--kk-i-382--009-002_anonim--nro-3-gloria.krn
!!!cenid: 18xx:1468
!!!COM: Anonim
!!!COM-rismid: pe30004985
!!!CDT:
!!!CNT:
!!!OTL: Nro 3 Gloria
!!!PDT:
!!!AGN: Sacred
!!!SMS-siglum: PL-Kk
!!!SMS-shelfmark: Kk.I.382
!!!SMS-shelfwork: 009-002
!!!SMS-variant:
!!!SMS-altvar:
!!!NIFC-rismid: 1001139092
!!!URL-scan: http://repozytorium.nifc.pl/skany/pl-kk-nut--i-382
!!!ONB-nifc: UWAGA: obsada: S/T 1, T 2, A/B 1, B 2. Skan 0009-0010 (m.in.)
**kern	**text	**dynam	**kern	**text	**kern	**text	**kern	**text
*part4	*part4	*part4	*part3	*part3	*part2	*part2	*part1	*part1
*staff4	*staff4	*	*staff3	*staff3	*staff2	*staff2	*staff1	*staff1
*I"Basso II	*	*	*I"Tenore II	*	*I"Alto vel Basso I	*	*I"Soprano vel Tenore I.	*
*I'B. II	*	*	*I'T. II	*	*I'A.	*	*I'S. vel T. I	*
*clefF4	*	*	*clefC4	*	*clefC3	*	*clefC1	*
*k[]	*	*	*k[]	*	*k[]	*	*k[]	*
*C:	*	*	*C:	*	*C:	*	*C:	*
*M4/4	*	*	*M4/4	*	*M4/4	*	*M4/4	*
*met(C.)	*	*	*met(C.)	*	*met(C.)	*	*met(C.)	*
=1	=1	=1	=1	=1	=1	=1	=1	=1
!LO:TX:t=P:problem:caudy wszystkich nut po prawej	!	!	!LO:TX:t=P:problem:caudy wszystkich nut po prawej	!	!LO:TX:t=P:problem:caudy wszystkich nut po prawej	!	!LO:TX:t=P:problem:caudy wszystkich nut po prawej	!
4.c\	Et	.	4.e\	Et	(4.g\	Et	(4cc\	Et
.	.	.	.	.	.	.	4b\)	.
8G\	.	.	8d\	.	8f\	.	.	.
(4E\	in	.	4c\	.	4e\)	.	(4g\	in
4G\)	.	.	(16e\LL	in	(16g\LL	in	4b\)	.
.	.	.	16d\	.	16f\	.	.	.
.	.	.	16c\	.	16e\	.	.	.
.	.	.	16d\JJ)	.	16f\JJ)	.	.	.
=2	=2	=2	=2	=2	=2	=2	=2	=2
4c\	ter-	.	4e\	ter-	4g\	ter-	4cc\	ter-
4C/	-ra	.	4c\	-ra	4e\	-ra	4g\	-ra
4r	.	.	4r	.	4r	.	4r	.
4C/	in	.	4c\	in	4e\	in	4g\	in
=3	=3	=3	=3	=3	=3	=3	=3	=3
*	*	*	*	*	*	*	*2\right	*
4BB/	ter-	.	8B\L	ter-	(8d\L	ter-	2.g\	ter-
.	.	.	8d\	.	8f\	.	.	.
2C/	.	.	8c\	.	8e\	.	.	.
.	.	.	8e\J	.	8g\J	.	.	.
.	.	.	4e\	.	4g\)	.	.	.
4GG/	-ra	.	4d\	-ra	4f\	-ra	4b\	-ra
=4	=4	=4	=4	=4	=4	=4	=4	=4
*	*	*	*2\right	*	*2\right	*	*	*
2C/	pax	.	2c\	pax	2e\	pax	2g\	pax
!	!	!	!LO:TX:b:i:t=V&colon;S&colon;	!	!	!	!	!
2C/	pax	.	2e\	pax	2g\	pax	2cc\	pax
!	!	!	!LO:PB:g=original	!	!	!	!	!
=5	=5	=5	=5	=5	=5	=5	=5	=5
*2\right	*	*	*	*	*	*	*	*
2F\	ho-	.	8e\L	ho-	(8g\L	ho-	2a\	ho-
.	.	.	8d\	.	8f\	.	.	.
.	.	.	8f\	.	8a\	.	.	.
.	.	.	8e\J	.	8g\J)	.	.	.
!	!	!	!	!	!LO:LB:g=original	!	!	!
4F\	-mi-	.	8e\L	-mi-	(8g\L	-mi-	4a\	-mi-
.	.	.	8d\J	.	8f\J)	.	.	.
4F#X\	-ni-	.	8d\L	-ni-	(8f\L	-ni-	4a\	-ni-
.	.	.	8c\J	.	8e\J)	.	.	.
!LO:LB:g=original	!	!	!	!	!	!	!LO:LB:g=original	!
=6	=6	=6	=6	=6	=6	=6	=6	=6
2G\	-bus	.	2B\	-bus	2d\	-bus	2g\	-bus
!	!	!	!	!	!	!	!LO:TX:a:t=P:problem:nuta zapisana niejednoznacznie, być może 4a\	!
4G\	bo-	.	8d\L	bo-	(8f\L	bo-	4b\	bo-
.	.	.	8B\J	.	8d\J)	.	.	.
!	!LO:SIC:l:s=-nae:v	!	!	!LO:SIC:l:s=-nae:v	!	!LO:SIC:l:s=-nae:v	!	!LO:SIC:l:s=-nae:v
4GG/	-ne	.	8c\L	-ne	(8e\L	-ne	4b\	-ne
.	.	.	8d\J	.	8f\J)	.	.	.
=7	=7	=7	=7	=7	=7	=7	=7	=7
(8C/L	vo-	.	8c\L	vo-	(8e\L	vo-	2g\	vo-
8BB/	.	.	8d\	.	8f\	.	.	.
8C/	.	.	8c\	.	8e\	.	.	.
8BB/J)	.	.	8d\J	.	8f\J)	.	.	.
2C/	-lun-	.	2e\	-lun-	2g\	-lun-	2g\	-lun-
=8	=8	=8	=8	=8	=8	=8	=8	=8
2G\	-ta-	.	4d\	-ta-	4g\	-ta-	(4b\	-ta-
.	.	.	8B\L	.	(8d\L	.	4g\)	.
.	.	.	8c\J	.	8e\J	.	.	.
2GG/	.	.	8d\L	.	8f\L	.	2g\	.
.	.	.	8c\	.	8e\	.	.	.
.	.	.	8d\	.	8f\	.	.	.
.	.	.	8B\J	.	8d\J)	.	.	.
=9	=9	=9	=9	=9	=9	=9	=9	=9
4C/	-tis	.	4c\	-tis	4e\	-tis	4g\	-tis
4C/	lau-	.	4c\	lau-	(8g\L	lau-	(8ee\L	lau-
.	.	.	.	.	8e\J)	.	8cc\J)	.
4C/	-da-	.	4G/	-da-	4c\	-da-	4ee\	-da-
!	!	!	!	!	!	!	!LO:TX:b:i:t=V&colon;S&colon;	!
4C/	-mus	.	4G/	-mus	4B-X/	-mus	4ee\	-mus,
!	!	!	!LO:LB:g=original	!	!LO:LB:g=original	!	!	!
!	!	!	!	!	!	!	!LO:PB:g=original	!
=10	=10	=10	=10	=10	=10	=10	=10	=10
4F\	te	.	4c\	te	4A/	te	4ff\	te
8D\	be-	.	8A\	be-	8a\	be-	8ff#X\	be-
8D\	-ne-	.	8A\	-ne-	8f#X\	-ne-	8dd\	-ne-
4D\	-di-	.	4A\	-di-	4d\	-di-	4ff#\	-di-
8F#X\	-ci-	.	8A\	-ci-	8c\	-ci-	8ff#\	-ci-
8D\	-mus	.	8A\	-mus	8c\	-mus	8ff#\	-mus
!LO:LB:g=original	!	!	!	!	!	!	!	!
=11	=11	=11	=11	=11	=11	=11	=11	=11
2G\	te	.	2d\	te	2Bn/	te	2gg\	te
4G\	a-	.	8B\L	a-	(8d\L	a-	(8ffn\L	a-
.	.	.	8c\J	.	8e\J)	.	8ee\J)	.
4G\	-do-	.	8B\L	-do-	(8d\L	-do-	(8dd\L	-do-
.	.	.	8c\J	.	8e\J)	.	8cc\J)	.
=12	=12	=12	=12	=12	=12	=12	=12	=12
2.G\	-ra-	.	8d\L	-ra-	(8f\L	-ra-	(2b\	-ra-
.	.	.	8c\	.	8e\	.	.	.
.	.	.	8B\	.	8d\	.	.	.
.	.	.	8c\J	.	8e\J)	.	.	.
.	.	.	8d\L	-mus	(8f\L	-mus	4g\)	.
.	.	.	8f\	.	8a\	.	.	.
4GG/	-mus	.	8e\	.	8g\	.	4g\	-mus
.	.	.	8d\J	.	8f\J)	.	.	.
=13	=13	=13	=13	=13	=13	=13	=13	=13
2C/	te	.	2c\	te	2e\	te	2g\	te
4G\	glo-	.	4d\	glo-	4f\	glo-	4b\	glo-
8G\	-ri-	.	8c\	-ri-	8e\	-ri-	8g\	-ri-
8G\	-fi-	.	8B\	-fi-	8d\	-fi-	8g\	-fi-
!	!	!	!LO:LB:g=original	!	!LO:LB:g=original	!	!LO:LB:g=original	!
=14	=14	=14	=14	=14	=14	=14	=14	=14
.	.	.	.	.	16qqf/	.	.	.
(4C/	-ca-	.	16d\LL	-ca-	8e\L	-ca-	4g\	-ca-
.	.	.	16c'\	.	.	.	.	.
.	.	.	16B\	.	16d\L	.	.	.
.	.	.	16c\JJ	.	16e\JJ	.	.	.
.	.	.	.	.	16qqg/	.	.	.
4BB/	.	.	16e\LL	.	8f\L	.	4b\	.
.	.	.	16d'\	.	.	.	.	.
.	.	.	16c\	.	16e\L	.	.	.
.	.	.	16d\JJ	.	16f\JJ	.	.	.
.	.	.	.	.	16qqa/	.	.	.
4C/	.	.	16f\LL	.	8g\L	.	2cc\	.
.	.	.	16e'\	.	.	.	.	.
.	.	.	16d\	.	16f\L	.	.	.
.	.	.	16e\JJ	.	16g\JJ	.	.	.
4F\	.	.	16g\LL	.	8a\L	.	.	.
.	.	.	16f'\	.	.	.	.	.
.	.	.	16e\	.	16g\L	.	.	.
.	.	.	16d\JJ	.	16f\JJ	.	.	.
=15	=15	=15	=15	=15	=15	=15	=15	=15
8G\L	.	.	2c\	.	2e\	.	2g\	.
8F\	.	.	.	.	.	.	.	.
8E\	.	.	.	.	.	.	.	.
8F\J	.	.	.	.	.	.	.	.
4G\)	.	.	2B\	-mus	2d\	-mus	2g\	-mus
4GG/	-mus	.	.	.	.	.	.	.
=16	=16	=16	=16	=16	=16	=16	=16	=16
!LO:TX:b:i:t=V&colon;S&colon;	!	!	!	!	!	!	!	!
1C/	te.	.	1c\	te.	1e\	te	1g\	te.
!LO:PB:g=original	!	!	!	!	!	!	!	!
==17	==17	==17	==17	==17	==17	==17	==17	==17
*M3/4	*	*	*M3/4	*	*M3/4	*	*M3/4	*
!LO:TX:t=P:problem:mixed beam	!	!	!	!	!	!	!	!
(8A\L	gra-	.	4.A\	gra-	4.e\	Gra-	4.cc\	Gra-
8AA/J)	.	.	.	.	.	.	.	.
(8C\L	-ti-	.	.	.	.	.	.	.
8E\J)	.	.	8A\	-ti-	8e\	-ti-	8cc\	-ti-
4A\	-as	.	4A\	-as	4e\	-as	4cc\	-as
=18	=18	=18	=18	=18	=18	=18	=18	=18
(8G#X\L	a-	.	4.B\	a-	4.e\	a-	4.dd\	a-
8E\J)	.	.	.	.	.	.	.	.
(8G#\L	-gi-	.	.	.	.	.	.	.
8B\J)	.	.	8B\	-gi-	8e\	-gi-	8dd\	-gi-
!	!	!	!	!	!LO:TX:b:i:t=V&colon;S&colon;	!	!	!
(8G#\L	-mus	.	4B\	-mus	4e\	-mus	4dd\	-mus
8E\J)	.	.	.	.	.	.	.	.
!	!	!	!	!	!LO:PB:g=original	!	!	!
=19	=19	=19	=19	=19	=19	=19	=19	=19
(4A\	ti-	.	2.A\	ti-	(2e\	ti-	2.cc\	ti-
4Fn\	.	.	.	.	.	.	.	.
4D#X\)	.	.	.	.	4f#X\)	.	.	.
!	!	!	!LO:LB:g=original	!	!	!	!	!
=20	=20	=20	=20	=20	=20	=20	=20	=20
2E\	-bi	.	2G#X/	-bi	2e\	-bi	2b\	-bi
4r	.	.	4r	.	4r	.	4r	.
!	!	!	!	!	!	!	!LO:LB:g=original	!
=21	=21	=21	=21	=21	=21	=21	=21	=21
2G#X\	prop-	.	2B\	prop-	2fn\	prop-	2dd\	prop-
4A\	-ter	.	4A\	-ter	4e\	-ter	4cc\	-ter
=22	=22	=22	=22	=22	=22	=22	=22	=22
(4B\	ma-	.	2d\	ma-	2g#X\	ma-	2ee\	ma-
4E\)	.	.	.	.	.	.	.	.
4A\	-gnam	.	4c\	-gnam	4a\	-gnam	4ee\	-gnam
=23	=23	=23	=23	=23	=23	=23	=23	=23
4.Fn\	glo-	.	4.G#X/	glo-	4.d\	glo-	4.b\	glo-
8F\	-ri-	.	8G#/	-ri-	8d\	-ri-	8b\	-ri-
4F\	-am	.	4G#/	-am	4d\	-am	4b\	-am
!LO:LB:g=original	!	!	!	!	!	!	!	!
=24	=24	=24	=24	=24	=24	=24	=24	=24
4F\	tu-	.	4G#X/	tu-	(4d\	tu-	(4b\	tu-
2E\	.	.	4A/	.	2e\)	.	4cc\	.
.	.	.	4G#/	.	.	.	4b\)	.
=25	=25	=25	=25	=25	=25	=25	=25	=25
2AA/	-am	.	2A\	-am	2e\	-am	2cc\	-am
!LO:TX:a:i:t=Solo.	!	!	!	!	!	!	!	!
4r	.	.	4r	.	4r	.	4r	.
=26	=26	=26	=26	=26	=26	=26	=26	=26
!LO:TX:a:t=P:problem:oznaczenie p znajduje się na pięciolinii	!	!LO:DY:rj	!	!	!	!	!	!
4.c\	Do-	p	4.e\	Do-	4.g\	Do-	4.cc\	Do-
8B\	-mi-	.	8d\	-mi-	8f\	-mi-	8b\	-mi-
4G\	-ne	.	4c\	-ne	4e\	-ne	4g\	-ne
=27	=27	=27	=27	=27	=27	=27	=27	=27
2G\	De-	.	(4B\	De-	(4d\	De-	2g\	De-
.	.	.	4c\)	.	4e\)	.	.	.
4G\	-us	.	4d\	-us	4f\	-us	4g\	-us
!	!	!	!LO:LB:g=original	!	!LO:LB:g=original	!	!LO:LB:g=original	!
=28	=28	=28	=28	=28	=28	=28	=28	=28
(4G\	rex	.	8c\L	rex	(8e\L	rex	(4g\	rex
.	.	.	16d\L	.	16f\L	.	.	.
.	.	.	16e\JJ	.	16g\JJ	.	.	.
4B\)	.	.	4d\	.	4f\)	.	4b\)	.
!	!	!	!	!LO:SIC:l:s=coe-:v	!	!LO:SIC:l:s=coe-:v	!	!LO:SIC:l:s=coe-:v
4c\	ce-	.	4c\	ce-	4e\	ce-	4cc\	ce-
=29	=29	=29	=29	=29	=29	=29	=29	=29
4G\	-les-	.	4c\	-les-	4e\	-les-	4g\	-les-
4G\	-tis	.	4B\	-tis	4d\	-tis	4g\	-tis
4r	.	.	4r	.	4r	.	4r	.
=30	=30	=30	=30	=30	=30	=30	=30	=30
2A\	De-	.	2c\	De-	2f\	De-	2a\	De-
4G\	-us	.	4c\	-us	4e\	-us	4g\	-us
=31	=31	=31	=31	=31	=31	=31	=31	=31
2F\	Pa-	.	2B\	pa-	2d\	pa-	2f/	pa-
4E\	-ter	.	4c\	-ter	4c\	-ter	4e/	-ter
!LO:LB:g=original	!	!	!	!	!	!	!	!
=32	=32	=32	=32	=32	=32	=32	=32	=32
4A\	om-	.	4d\	om-	4f\	om-	4a\	om-
4G\	-ni-	.	4c\	-ni-	4e\	-ni-	4g\	-ni-
4G\	-po-	.	4B\	-po-	4d\	-po-	4g\	-po-
=33	=33	=33	=33	=33	=33	=33	=33	=33
4G\	-tens.	.	4c\	-tens	4e\	-tens	4g\	-tens
(8C/L	Do-	.	(8G\L	Do-	(8e\L	Do-	(8g\L	Do-
8E/J)	.	.	8c\J)	.	8g\J)	.	8cc\J)	.
8D/	-mi-	.	8c\	-mi-	8f\	-mi-	8cc\	-mi-
8C/	-ne	.	8G/	-ne	8e\	-ne	8g\	-ne
!	!	!	!	!	!	!	!LO:LB:g=original	!
=34	=34	=34	=34	=34	=34	=34	=34	=34
2G\	fi-	.	2c\	fi-	2e\	fi-	2cc\	fi-
4GG/	-li	.	4B\	-li	4d\	-li	4b\	-li
!	!	!	!LO:LB:g=original	!	!LO:LB:g=original	!	!	!
=35	=35	=35	=35	=35	=35	=35	=35	=35
(4GG/	u-	.	(4d\	u-	(4f\	u-	(4b\	u-
4BB/)	.	.	4c\)	.	4e\)	.	4g\)	.
4GG/	-ni-	.	4B\	-ni-	4d\	-ni-	4g\	-ni-
=36	=36	=36	=36	=36	=36	=36	=36	=36
4.C/	-ge-	.	4.c\	-ge-	4.e\	-ge-	4.g\	-ge-
8GG/	-ni-	.	8d\	-ni-	8f\	-ni-	8b\	-ni-
4C/	-te	.	4e\	-te	4g\	-te	4cc\	-te
=37	=37	=37	=37	=37	=37	=37	=37	=37
(8F\L	Je-	.	2f\	Je-	2a\	Je-	2cc\	Je-
8G\	.	.	.	.	.	.	.	.
8A\	.	.	.	.	.	.	.	.
8B\J)	.	.	.	.	.	.	.	.
4c\	-su	.	4e\	-su	4g\	-su	4cc\	-su
!LO:LB:g=original	!	!	!	!	!	!	!	!
=38	=38	=38	=38	=38	=38	=38	=38	=38
2G\	Je-	.	8d\L	Je-	(8f\L	Je-	(4b\	Je-
.	.	.	8B\	.	8d\	.	.	.
.	.	.	8c\	.	8e\	.	4g\)	.
.	.	.	8d\J	.	8f\J)	.	.	.
4C/	-su	.	4e\	-su	4g\	-su	4g\	-su
=39	=39	=39	=39	=39	=39	=39	=39	=39
(4F\	Chri-	.	8f\L	Chri-	(8a\L	Chri-	(4a\	Chri-
.	.	.	16e\L	.	16g\L	.	.	.
.	.	.	16d\JJ	.	16f\JJ	.	.	.
4G\	.	.	4c\	.	4e\	.	2g\)	.
4GG/)	.	.	4B\	.	4d\)	.	.	.
=40	=40	=40	=40	=40	=40	=40	=40	=40
4C/	-ste	.	4c\	-ste	4e\	-ste	4g\	-ste
(8C/L	Do-	.	4e\	Do-	4g\	Do-	4cc\	Do-
8E/J)	.	.	.	.	.	.	.	.
8D/	-mi-	.	8d\	-mi-	8f\	-mi-	8b\	-mi-
8C/	-ne	.	8c\	-ne	8e\	-ne	8cc\	-ne
!	!	!	!	!	!	!	!LO:LB:g=original	!
=41	=41	=41	=41	=41	=41	=41	=41	=41
(8G\L	De-	.	2c\	De-	2e\	De-	2g/	De-
8D\J	.	.	.	.	.	.	.	.
8BB/L	.	.	.	.	.	.	.	.
8D/J)	.	.	.	.	.	.	.	.
4GG/	-us	.	4B\	-us	4d\	-us	4g/	-us
!	!	!	!LO:LB:g=original	!	!LO:LB:g=original	!	!	!
=42	=42	=42	=42	=42	=42	=42	=42	=42
(4GG/	a-	.	(4B\	a-	(4d\	a-	2g/	a-
4G\)	.	.	4c\)	.	4e\)	.	.	.
4G\	-gnus	.	4d\	-gnus	4f\	-gnus	4b\	-gnus
=43	=43	=43	=43	=43	=43	=43	=43	=43
(8c\L	De-	.	(4.e\	De-	(4.g\	De-	(4.cc\	De-
8G\	.	.	.	.	.	.	.	.
8E\	.	.	.	.	.	.	.	.
8G\J)	.	.	8d\)	.	8f\)	.	8b\)	.
4C/	-i	.	4c\	-i	4e\	-i	4g\	-i
!LO:LB:g=original	!	!	!	!	!	!	!	!
=44	=44	=44	=44	=44	=44	=44	=44	=44
(8BB/L	fi-	.	4.B\	fi-	4.g\	fi-	4.b\	fi-
8GG/J)	.	.	.	.	.	.	.	.
(8AA/L	-li-	.	.	.	.	.	.	.
8BB/J)	.	.	8B\	-li-	8g\	-li-	8b\	-li-
4C/	-us	.	4c\	-us	4g\	-us	4cc\	-us
=45	=45	=45	=45	=45	=45	=45	=45	=45
(8F\L	fi-	.	4.c\	fi-	4.a\	fi-	4.cc\	fi-
8G\J)	.	.	.	.	.	.	.	.
(8A\L	-li-	.	.	.	.	.	.	.
8B\J)	.	.	8d\	-li-	8a\	-li-	8dd\	-li-
4c\	-us	.	4c\	-us	4g\	-us	4cc\	-us
=46	=46	=46	=46	=46	=46	=46	=46	=46
(8E\L	pa-	.	(8c\L	pa-	(8g\L	pa-	(8cc\L	pa-
8F\J	.	.	8A\J	.	16a\L	.	8a\J	.
.	.	.	.	.	16f\JJ	.	.	.
4G\	.	.	2G/)	.	4e\	.	2g\)	.
4GG/)	.	.	.	.	4d\)	.	.	.
=47	=47	=47	=47	=47	=47	=47	=47	=47
4C/	-tris	.	4G/	-tris	2e\	-tris	4g\	-tris
4r	.	.	4r	.	.	.	4r	.
4c\	qui	.	4e\	qui	4g\	qui	4cc\	qui
!	!	!	!	!	!	!	!LO:LB:g=original	!
=48	=48	=48	=48	=48	=48	=48	=48	=48
4B-X\	tol-	.	4e\	tol-	4g\	tol-	4cc\	tol-
4B-\	-lis	.	4e\	-lis	4g\	-lis	4cc\	-lis
8r	.	.	8r	.	8r	.	8r	.
8B-\	pec-	.	8e\	pec-	8g\	pec-	8cc\	pec-
!	!	!	!LO:LB:g=original	!	!LO:LB:g=original	!	!	!
=49	=49	=49	=49	=49	=49	=49	=49	=49
4B-X\	-ca-	.	4e\	-ca-	4g\	-ca-	4cc\	-ca-
4B-\	-ta	.	4e\	-ta	4g\	-ta	4cc\	-ta
8r	.	.	8r	.	8r	.	8r	.
8B-\	pec-	.	8e\	pec-	8g\	pec-	8cc\	pec-
!LO:LB:g=original	!	!	!	!	!	!	!	!
=50	=50	=50	=50	=50	=50	=50	=50	=50
(4A\	-ca-	.	(4f\	-ca-	(4a\	-ca-	2cc\	-ca-
!	!	!	!	!	!LO:TX:a:t=P:problem:niejednoznaczny zapis wysokości dźwięku, być może 4cc-X\)	!	!	!
4G\)	.	.	4e\)	.	4b-X\)	.	.	.
(8F\L	-ta	.	4f\	-ta	4a\	-ta	4cc\	-ta
8A\J)	.	.	.	.	.	.	.	.
=51	=51	=51	=51	=51	=51	=51	=51	=51
4c\	mun-	.	4f\	mun-	4a\	mun-	4cc\	mun-
4C/	-di	.	4e\	-di	4g\	-di	4cc\	-di
4r	.	.	4r	.	4r	.	4r	.
=52	=52	=52	=52	=52	=52	=52	=52	=52
2C#X/	mi-	.	2e\	mi-	2g\	mi-	2b-X\	mi-
4C#/	-se-	.	4e\	-se-	4g\	-se-	4b-\	-se-
=53	=53	=53	=53	=53	=53	=53	=53	=53
(4D\	-re-	.	(4f\	-re-	(4a\	-re-	(4a\	-re-
4E\	.	.	4e\)	.	4g\)	.	4b-X\)	.
4F\)	-re	.	4d\	-re	4f\	-re	4a\	-re
=54	=54	=54	=54	=54	=54	=54	=54	=54
(4G\	no-	.	(4e\	no-	(4g\	no-	(4b-X\	no-
4A\	.	.	4d\	.	4f\	.	2a\)	.
4AA/)	.	.	4c#X\)	.	4e\)	.	.	.
!	!	!	!	!	!	!	!LO:LB:g=original	!
=55	=55	=55	=55	=55	=55	=55	=55	=55
4D\	-bis	.	4d\	-bis	4f\	-bis	4a\	-bis
4r	.	.	4r	.	4r	.	4r	.
4D\	qui	.	4d\	qui	4f#X\	qui	4a\	qui
=56	=56	=56	=56	=56	=56	=56	=56	=56
4D\	tol-	.	4d\	tol-	4f#X\	tol-	4a\	tol-
4D\	-lis	.	4d\	-lis	4f#\	-lis	4a\	-lis
8r	.	.	8r	.	8r	.	8r	.
8D\	pec-	.	8d\	pec-	8f#\	pec-	8a\	pec-
!LO:LB:g=original	!	!	!LO:LB:g=original	!	!LO:LB:g=original	!	!	!
=57	=57	=57	=57	=57	=57	=57	=57	=57
4C/	-ca-	.	4d\	-ca-	4f#X\	-ca-	4a\	-ca-
4C/	-ta	.	4d\	-ta	4f#\	-ta	4a\	-ta
8r	.	.	8r	.	8r	.	8r	.
8C/	pec-	.	8d\	pec-	8f#\	pec-	8a\	pec-
=58	=58	=58	=58	=58	=58	=58	=58	=58
(4BB-X/	-ca-	.	(4d\	-ca-	(4g\	-ca-	(4g\	-ca-
4AA/)	.	.	4e-X\)	.	4f#X\)	.	4cc\)	.
4GG/	-ta	.	4d\	-ta	4g\	-ta	4b-X\	-ta
=59	=59	=59	=59	=59	=59	=59	=59	=59
4D\	mun-	.	4d\	mun-	4g\	mun-	4b-X\	mun-
4D\	-di	.	4d\	-di	4f#X\	-di	4a\	-di
4r	.	.	4r	.	4r	.	4r	.
=60	=60	=60	=60	=60	=60	=60	=60	=60
!	!	!	!	!	!LO:TX:b:t=2.	!	!	!
!	!	!	!	!	!LO:N:vis=0	!	!	!
4.BB-X/	sus-	.	4.f\	sus-	1.r	.	4.dd\	sus-
8AA/	-ci-	.	8e-X\	-ci-	.	.	8cc\	-ci-
4BB-/	-pe	.	4d\	-pe	.	.	4b-X\	-pe
!	!	!	!	!	!	!	!LO:LB:g=original	!
=61	=61	=61	=61	=61	=61	=61	=61	=61
4.F\	sus-	.	4.e-X\	sus-	.	.	4.cc\	sus-
8F\	-ci-	.	8d\	-ci-	.	.	8b-X\	-ci-
4F\	-pe	.	4c\	-pe	.	.	4a\	-pe
=62	=62	=62	=62	=62	=62	=62	=62	=62
4.F\	sus-	.	4.A\	sus-	4.c\	sus-	4.a\	sus-
8F\	-ci-	.	8B-X\	-ci-	8d\	-ci-	8b-X\	-ci-
4F\	-pe	.	4c\	-pe	4e-X\	-pe	4cc\	-pe
!LO:LB:g=original	!	!	!	!	!	!	!	!
=63	=63	=63	=63	=63	=63	=63	=63	=63
!LO:SIC:s=4.B-\:v	!	!	!	!	!	!	!	!
4.B\	sus-	.	4.B-X\	sus-	4.d\	sus-	4.b-X\	sus-
8F\	-ci-	.	8c\	-ci-	8e-X\	-ci-	8cc\	-ci-
!LO:SIC:s=4BB-/:v	!	!	!	!	!	!	!	!
4BB/	-pe	.	4d\	-pe	4f\	-pe	4dd\	-pe
!	!	!	!LO:LB:g=original	!	!	!	!	!
=64	=64	=64	=64	=64	=64	=64	=64	=64
!LO:SIC:s=2BB-/:v	!	!	!	!	!	!	!	!
2BB/	de-	.	2e-X\	de-	2g\	de-	2b-X\	de-
!LO:SIC:s=4BB-/:v	!	!	!	!	!	!	!	!
4BB/	-pre-	.	4d\	-pre-	4f\	-pre-	4b-\	-pre-
=65	=65	=65	=65	=65	=65	=65	=65	=65
(8AA/L	-ca-	.	2c\	-ca-	2e-X\	-ca-	2ff\	-ca-
8FF/	.	.	.	.	.	.	.	.
8GG/	.	.	.	.	.	.	.	.
8AA/J)	.	.	.	.	.	.	.	.
!LO:SIC:s=4BB-/:v	!	!	!	!	!	!	!	!
4BB/	-ti-	.	4B-X\	-ti-	4d\	-ti-	4ff\	-ti-
!	!	!	!	!	!LO:LB:g=original	!	!	!
=66	=66	=66	=66	=66	=66	=66	=66	=66
!	!	!	!	!	!	!	!LO:TX:a:t=P:problem:nad nutami kreska, przypominająca łuk	!
(<2.F\	-o-	.	4A\	-o-	(4c\	-o-	4ee-X\	-o-
.	.	.	4B-X\	.	4d\	.	4dd\	.
.	.	.	4c\	.	4e-X\	.	4cc\	.
!	!	!	!	!	!	!	!LO:LB:g=original	!
=67	=67	=67	=67	=67	=67	=67	=67	=67
4D/	.	.	4B-X\	.	4d\	.	4b-X\	.
4C/)	.	.	4c\	.	4e-X\)	.	4a\	.
4BB-X/	-nem	.	4d\	-nem	4f\	-nem	4b-\	-nem
=68	=68	=68	=68	=68	=68	=68	=68	=68
(4E-X\	no-	.	8e-X\L	no-	(8g\L	no-	(4cc\	no-
.	.	.	16d\L	.	16f\L	.	.	.
.	.	.	16c\JJ	.	16e-X\JJ	.	.	.
4F\	.	.	4B-X\	.	4d\	.	2f/)	.
4FF/)	.	.	4A\	.	4c\)	.	.	.
=69	=69	=69	=69	=69	=69	=69	=69	=69
!LO:SIC:s=4BB-/:v	!	!	!	!	!	!	!	!
4BB/	-stram	.	4B-X\	-stram	4d\	-stram	4f/	-stram
4r	.	.	4r	.	4r	.	4r	.
!	!	!	!LO:TX:b:i:t=V&colon;S&colon;	!	!	!	!	!
!LO:SIC:s=4B-\:v	!	!	!	!	!	!	!	!
4B\	qui	.	4d\	qui	4f\	qui	4b-X\	qui
!LO:LB:g=original	!	!	!	!	!	!	!	!
!	!	!	!LO:PB:g=original	!	!	!	!	!
=70	=70	=70	=70	=70	=70	=70	=70	=70
4Bn\	se-	.	4d\	se-	4f\	se-	4a-X\	se-
4B\	-des	.	4d\	-des	4f\	-des	4a-\	-des
4B\	ad	.	4d\	ad	4f\	ad	4a-\	ad
=71	=71	=71	=71	=71	=71	=71	=71	=71
4.c\	dex-	.	4.e-X\	dex-	4.g\	dex-	4.g\	dex-
8G\	-te-	.	8d\	-te-	8f\	-te-	8g\	-te-
4C/	-ram	.	4c\	-ram	4e-X\	-ram	4g\	-ram
=72	=72	=72	=72	=72	=72	=72	=72	=72
!	!	!	!	!	!	!	!LO:TX:t=P:problem:pierwotnie słowo "patris", przerobione na "ad dex". Między "ad dex" pozostał fragment "tri"	!
4C/	ad	.	4e-X\	ad	4g\	ad	4g\	ad
4BBn/	dex-	.	4d\	dex-	4f\	dex-	4a-X\	dex-
!	!	!	!	!	!	!	!LO:LB:g=original	!
(16C/LL	-te-	.	8c\	-te-	8e-X\	-te-	8g\	-te-
16D/JJ)	.	.	.	.	.	.	.	.
(16E-X\LL	-ram	.	8c\	-ram	8e-\	-ram	8g\	-ram
16F\JJ)	.	.	.	.	.	.	.	.
!	!	!	!	!	!LO:LB:g=original	!	!	!
=73	=73	=73	=73	=73	=73	=73	=73	=73
4G\	pa-	.	4c\	pa-	4e-X\	pa-	4g\	pa-
4GG/	-tris	.	4Bn\	-tris	4d\	-tris	4g\	-tris
4r	.	.	4r	.	4r	.	4r	.
=74	=74	=74	=74	=74	=74	=74	=74	=74
2BBn/	mi-	.	2f\	mi-	2a-X\	mi-	2dd\	mi-
4C/	-se-	.	4e-X\	-se-	4g\	-se-	4cc\	-se-
=75	=75	=75	=75	=75	=75	=75	=75	=75
(8G\L	-re-	.	(4d\	-re-	(4f\	-re-	(4bn\	-re-
8A-X\J	.	.	.	.	.	.	.	.
4Bn\)	.	.	4f\)	.	4a-X\)	.	4dd\)	.
4c\	-re	.	4e-X\	-re	4g\	-re	4cc\	-re
!LO:LB:g=original	!	!	!	!	!	!	!	!
=76	=76	=76	=76	=76	=76	=76	=76	=76
(4F\	no-	.	(8d\L	no-	(8f\L	no-	(4a-X\	no-
.	.	.	16f\L	.	16a-X\L	.	.	.
.	.	.	16d\JJ	.	16f\JJ	.	.	.
4G\	.	.	4c\	.	4e-X\	.	2g\)	.
4GG/)	.	.	4Bn\)	.	4d\)	.	.	.
!	!	!	!LO:LB:g=original	!	!	!	!	!
=77	=77	=77	=77	=77	=77	=77	=77	=77
2.C/	-bis.	.	2.c\	-bis	2e-X\	-bis	2g\	-bis.
!	!	!	!	!	!	!	!LO:TX:b:i:t=Seque Quoniam V&colon;S&colon;	!
.	.	.	.	.	4r	.	4r	.
!	!	!	!	!	!	!	!LO:PB:g=original	!
==78	==78	==78	==78	==78	==78	==78	==78	==78
*M4/4	*	*	*M4/4	*	*M4/4	*	*M4/4	*
*met(C.)	*	*	*met(C.)	*	*met(C.)	*	*met(C.)	*
*	*	*	*	*	*k[en]	*	*	*
!	!	!	!	!	!	!	!LO:TX:a:t=P:problem:oznaczenie metryczne (C.) znajduje się na końcu poprzedniej linii oraz na początku nowej linii	!
4.c\	Quo-	.	4.en\	Quo-	4.g\	Quo-	4.cc\	Quo-
8G\	-ni-	.	8d\	-ni-	8f\	-ni-	8b\	-ni-
4E\	-am	.	4c\	-am	4en\	-am	4g\	-am
4G\	tu	.	4d\	tu	4f\	tu	4b\	tu
!	!	!	!	!	!LO:LB:g=original	!	!	!
=79	=79	=79	=79	=79	=79	=79	=79	=79
(4c\	so-	.	(4e\	so-	2g\	so-	(4cc\	so-
4G\)	.	.	4d\)	.	.	.	4b\)	.
4E\	-lus	.	4e\	-lus	4g\	-lus	4cc\	-lus
4D\	tu	.	4f\	tu	4g\	tu	4dd\	tu
=80	=80	=80	=80	=80	=80	=80	=80	=80
2C/	so-	.	(4e\	so-	2.g\	so-	(4cc\	so-
.	.	.	8d\L	.	.	.	8b\L	.
.	.	.	8e\J)	.	.	.	8cc\J)	.
(4BB/	-lus	.	(4f\	-lus	.	.	(4dd\	-lus
4C/)	.	.	4e\)	.	4g\	-lus	4cc\)	.
=81	=81	=81	=81	=81	=81	=81	=81	=81
4G\	sanc-	.	4e\	sanc-	4g\	sanc-	4cc\	sanc-
4GG/	-tus	.	4d\	-tus	4g\	-tus	4b\	-tus
4r	.	.	4r	.	4r	.	4r	.
!LO:TX:b:i:t=V&colon;S&colon;	!	!	!	!	!	!	!	!
4G\	tu	.	(8d\L	tu	4g\	tu	(8b\L	tu
.	.	.	8e\J)	.	.	.	8cc\J)	.
!LO:PB:g=original	!	!	!	!	!	!	!	!
=82	=82	=82	=82	=82	=82	=82	=82	=82
2.G\	so-	.	(4f\	so-	2.g\	so-	(4dd\	so-
.	.	.	8e\L	.	.	.	8cc\L	.
.	.	.	8f\J)	.	.	.	8dd\J)	.
!	!	!	!	!	!	!	!LO:LB:g=original	!
.	.	.	(4g\	-lus	.	.	(4ee\	-lus
4G\	-lus	.	4f\)	.	4g\	-lus	4dd\)	.
!	!	!	!LO:LB:g=original	!	!	!	!	!
=83	=83	=83	=83	=83	=83	=83	=83	=83
8C/	Do-	.	8f\	Do-	8g\	Do-	8dd\	Do-
8C/	-mi-	.	8e\	-mi-	8g\	-mi-	8cc\	-mi-
4C/	-nus	.	4e\	-nus	4g\	-nus	4cc\	-nus
4r	.	.	4r	.	4r	.	4r	.
4C/	tu	.	4e\	tu	4g\	tu	4cc\	tu
=84	=84	=84	=84	=84	=84	=84	=84	=84
2C/	so-	.	2e\	so-	2g\	so-	2cc\	so-
4BB/	-lus	.	4d\	-lus	4f\	-lus	4g\	-lus
4C/	al-	.	4c\	al-	4en\	al-	4g\	al-
!	!	!	!	!	!LO:LB:g=original	!	!	!
=85	=85	=85	=85	=85	=85	=85	=85	=85
!	!LO:SIC:l:s=-tis-:v	!	!	!	!	!	!	!
4G\	-ti-	.	4.d\	-tis-	4.f\	-tis-	4.bn\	-tis-
(8D/L	-si-	.	.	.	.	.	.	.
8BB/J)	.	.	8d\	-si-	8f\	-si-	8b\	-si-
4GG/	-mus	.	4d\	-mus	4f\	-mus	4b\	-mus
4G\	tu	.	4d\	tu	4f\	tu	4b\	tu
=86	=86	=86	=86	=86	=86	=86	=86	=86
2G\	so-	.	2d\	so-	2f\	so-	2b\	so-
4B\	-lus	.	4c\	-lus	4e\	-lus	4g\	-lus
4G\	al-	.	4B\	al-	4d\	al-	4g\	al-
!	!	!	!	!	!	!	!LO:LB:g=original	!
=87	=87	=87	=87	=87	=87	=87	=87	=87
!	!LO:SIC:l:s=-tis-:v	!	!	!	!	!	!	!
4c\	-ti-	.	4.c\	-tis-	4.e\	-tis-	4.g\	-tis-
(8G\L	-si-	.	.	.	.	.	.	.
8E\J)	.	.	8d\	-si-	8f\	-si-	(16a\LL	-si-
.	.	.	.	.	.	.	16b\JJ)	.
2C/	-mus	.	4e\	-mus	2g\	-mus	2cc\	-mus
.	.	.	4r	.	.	.	.	.
!LO:LB:g=original	!	!	!	!	!	!	!	!
=88	=88	=88	=88	=88	=88	=88	=88	=88
4F\	Je-	.	1f\	Je-	1a\	Je-	1cc\	Je-
4G\	.	.	.	.	.	.	.	.
4A\	.	.	.	.	.	.	.	.
4B\	.	.	.	.	.	.	.	.
=89	=89	=89	=89	=89	=89	=89	=89	=89
4c\	.	.	1e\	-su	1g\	-su	1cc\	-su
4G\	.	.	.	.	.	.	.	.
(4E\	-su	.	.	.	.	.	.	.
4C/)	.	.	.	.	.	.	.	.
!	!	!	!LO:LB:g=original	!	!	!	!	!
=90	=90	=90	=90	=90	=90	=90	=90	=90
4GG/	Je-	.	1d\	Je-	1f\	Je-	1b\	Je-
4BB/	.	.	.	.	.	.	.	.
4D/	.	.	.	.	.	.	.	.
4G\	.	.	.	.	.	.	.	.
=91	=91	=91	=91	=91	=91	=91	=91	=91
!	!	!	!	!	!LO:TX:b:i:t=V&colon;S&colon;	!	!	!
4C\	.	.	1c\	-su	1e\	-su	1g\	-su
4E\	.	.	.	.	.	.	.	.
(4G\	-su	.	.	.	.	.	.	.
4c\)	.	.	.	.	.	.	.	.
!	!	!	!	!	!LO:LB:g=original	!	!	!
=92	=92	=92	=92	=92	=92	=92	=92	=92
4F\	Je-	.	4A\	Je-	4d\	Je-	(4f/	Chri-
4D\	-su	.	4d\	-su	4f\	-su	4a\	.
(4G\	Chri-	.	(4c\	Chri-	(4e\	Chri-	2g\)	.
4GG/)	.	.	4B\)	.	4d\)	.	.	.
=93	=93	=93	=93	=93	=93	=93	=93	=93
2C/	-ste	.	2c\	-ste	2e\	-ste	2g\	-ste
2c\	cum	.	2e\	cum	2g\	cum	2g\	cum
=94	=94	=94	=94	=94	=94	=94	=94	=94
2B\	san-	.	2d\	san-	2f\	san-	2g\	San-
2c\	-cto	.	2c\	-cto	2e\	-cto	2g\	-cto
!LO:LB:g=original	!	!	!	!	!	!	!	!
=95	=95	=95	=95	=95	=95	=95	=95	=95
2G\	spi-	.	2B\	spi-	2d\	spi-	2g\	spi-
2F#X\	-ri-	.	2c\	-ri-	2e\	-ri-	2a\	-ri-
=96	=96	=96	=96	=96	=96	=96	=96	=96
2G\	-tu	.	2B\	-tu	2d\	-tu	2g\	-tu
2C/	cum	.	2e\	cum	2e\	cum	2cc\	cum
!	!	!	!	!	!	!	!LO:LB:g=original	!
=97	=97	=97	=97	=97	=97	=97	=97	=97
2BB/	san-	.	2d\	san-	2d\	san-	2g\	san-
2C/	-cto	.	2c\	-cto	2c\	-cto	2g\	-cto
=98	=98	=98	=98	=98	=98	=98	=98	=98
1G\	spi-	.	(1B\	spi-	(2B/	spi-	(1g\	spi-
.	.	.	.	.	2d\	.	.	.
=99	=99	=99	=99	=99	=99	=99	=99	=99
2.F#X\	.	.	2.c\)	.	2.e-X\)	.	2.a\)	.
4F#\	-ri-	.	4c\	-ri-	4e-\	-ri-	4a\	-ri-
!	!	!	!LO:LB:g=original	!	!	!	!	!
=100	=100	=100	=100	=100	=100	=100	=100	=100
1G\;<	-tu.	.	1B\;	-tu	2d\	-tu	1g\;	-tu,
.	.	.	.	.	2r	.	.	.
!	!	!	!	!	!LO:LB:g=original	!	!	!
=101|!	=101	=101	=101	=101	=101	=101	=101||	=101
!LO:TX:t=P:problem:podwójna kreska taktowa	!	!	!	!	!	!	!	!
4C/	in	.	1c\	in	1e\	in	1g\	in
4D/	.	.	.	.	.	.	.	.
4E\	.	.	.	.	.	.	.	.
4F\	.	.	.	.	.	.	.	.
=102	=102	=102	=102	=102	=102	=102	=102	=102
4G\	glo-	.	2.d\	glo-	2.f\	glo-	2.b\	glo-
4GG/	.	.	.	.	.	.	.	.
(4AA/	-ri-	.	.	.	.	.	.	.
4BB/)	.	.	4d\	-ri-	4f\	-ri-	4b\	-ri-
=103	=103	=103	=103	=103	=103	=103	=103	=103
2C/	-a	.	2e\	-a	2g\	-a	2cc\	-a
2C/	De-	.	(2e\	De-	2g\	in	2cc\	in
!LO:LB:g=original	!	!	!	!	!	!	!	!
=104	=104	=104	=104	=104	=104	=104	=104	=104
2BB/	.	.	4f\)	.	2.d\	glo-	2.g\	glo-
.	.	.	(8e\L	-i	.	.	.	.
.	.	.	8f\J)	.	.	.	.	.
(4BB/	-i	.	(4d\	pa-	.	.	.	.
4GG/)	.	.	4g\)	.	4d\	-ri-	4g\	-ri-
=105	=105	=105	=105	=105	=105	=105	=105	=105
(2.C/	pa-	.	4e\	-tris	4c\	-a	(2.g\	-a
.	.	.	(4c\	a-	(4e\	De-	.	.
.	.	.	4e\	.	4c\)	.	.	.
4AA/)	.	.	4f#X\)	.	4d\	-i	4a\)	.
=106	=106	=106	=106	=106	=106	=106	=106	=106
2GG/	-tris	.	1g\	-men	2d\	pa-	2b\	De-
(2G\	a-	.	.	.	2d\	-tris	2b\	-i
!	!	!	!	!	!	!	!LO:LB:g=original	!
=107	=107	=107	=107	=107	=107	=107	=107	=107
2A\	.	.	2f#X\	a-	1d\	a-	2cc\	pa-
2B\)	.	.	2fn\	.	.	.	2dd\	-tris
=108	=108	=108	=108	=108	=108	=108	=108	=108
2c\	-men	.	2e\	.	2c\	-men	2g\	a-
2c\	a-	.	2e\	-men	(2g\	a-	2cc\	-men
!	!	!	!LO:LB:g=original	!	!	!	!	!
=109	=109	=109	=109	=109	=109	=109	=109	=109
(2B\	.	.	(2d\	a-	2f\)	.	2dd\	a-
2B-X\)	.	.	2e\	.	2g\	-men	2cc\	-men
!	!	!	!	!	!LO:LB:g=original	!	!	!
=110	=110	=110	=110	=110	=110	=110	=110	=110
2A\	-men	.	2c\)	.	[1f\	a-	2cc\	a-
(2A\	a-	.	2c\	-men	.	.	2cc\	-men
=111	=111	=111	=111	=111	=111	=111	=111	=111
2Bn\)	.	.	(2d\	a-	2f\]	.	2dd\	a-
2c\	-men	.	2c\	.	2e\	-men	2cc\	-men
=112	=112	=112	=112	=112	=112	=112	=112	=112
(4B\	a-	.	2d\)	.	2g\	a-	(1g\	a-
4G\)	.	.	.	.	.	.	.	.
(4c\	-men	.	2c\	-men	2g\	-men	.	.
4C/)	.	.	.	.	.	.	.	.
=113	=113	=113	=113	=113	=113	=113	=113	=113
(4F\	a-	.	(2d\	a-	1g\	a-	2a\	.
4D\	.	.	.	.	.	.	.	.
4G\	.	.	2B\)	.	.	.	2g\)	.
4GG/)	.	.	.	.	.	.	.	.
=114	=114	=114	=114	=114	=114	=114	=114	=114
1C/	-men.	.	1c\	-men.	1e\	-men.	1g\	-men.
==	==	==	==	==	==	==	==	==
*-	*-	*-	*-	*-	*-	*-	*-	*-
!!!system-decoration: [(s1,s2,s3,s4)]
!!!RDF**kern: < = below
!!!ENC: Zofia Niedbalska
!!!END: 2021-03-15
!!!ENC: Mateusz Solarz
!!!END: 2021-01-27
